X:2812
T:Polonäs
T:ur Johan Erik Carlssons notbok (nr 40)
B:Johan Erik Carlssons notbok, nr 40
B:http://www.smus.se/earkiv/fmk/browselarge.php?lang=sw&katalogid=MMD+67&bildnr=00022
O:Snavlunda, Närke / Bona, Östergötland
R:Slängpolska
Z:Nils Liberg
M:3/4
L:1/16
K:A
e2a2 agbg a2a2 | e2a2 g2bg a2a2 | f2f2 d2d2 B2B2 | edcB B4 A4 ::
c2cA d2dB e2ec | f2fd g2ge a2a2 | c2cA d2dB e2ec | f2fd g2ge a2a2 |
f2f2 d2d2 B2B2 | edcB B4 A4 :|
(:musicend:)
(:music:)
